X:1
T:Title
T:I Will Go and Do
T:Nik Day
C:Composer
%%score 1 { ( 2 4 ) | ( 3 5 ) } 6
L:1/8
Q:1/4=78
M:none
K:C
V:1 treble nm="Piano" snm="Pno."
V:2 treble nm="Piano" snm="Pno."
V:4 treble 
V:3 bass 
V:5 bass 
V:6 treble nm="Voice" snm="Vo."
V:1
 z8 | z8 | z8 | z8 | z C D3/2 C/ D E E2 | z8 | z8 | z8 | z8 | z8 | z8 | z8 | z8 | z8 | z8 | z8 | %16
 z8 | z8 | z8 | z8 | z8 | z8 | z8 | z8 | z8 | z8 | z8 | z8 | z8 | z8 | z8 | z8 | z8 | z8 | z8 | %35
 z8 | z8 | z8 | z8 | z8 | z8 | z8 | z8 | z8 | z8 | z8 | z8 | z8 | z8 | z8 | z8 | z8 | z8 | z8 | %54
 z8 | z8 | z8 | z8 | z8 | z8 | z8 | z8 | z8 | z8 | z8 | z8 | [CG]3 [CG]- [CG]2 [CG]2 | [Gc]8 | %68
 [GB]8 | [Ac]8 | !fermata![Gc]8 |] %71
V:2
 z c[Gd]c [Gd]e [Gd]2 | z [GB][GB]A [GB]c [GB]2 | z [Ac][Ad][Ae] [Ad]cAc | [Gd]2 [Gc]6 | %4
 [Gc]3 [Gc]- [Gc]4 | [GB]3 [GB]- [GB]4 | [Ac]3 [Ac-] [Ac]4 | [Ac]3 [Ac]- [Ac]2 F2 | %8
 [EGc]3 [EGc]- [EGc]4 | [GB]3 [GB]- [GB]4 | [Ac]3 [Ac]- [Ac]4 | [Gc]3 [Gc]- [Gc]4 | %12
 [Fc]3 [Fc]- [Fc]2 [Fc]2 | [Ec]4 [GB]2- [GB]2 | [Fc]3 [Fc]- [Fc]2 [Fc]2 | [FGc]8 | %16
 [CG]3 [CG]- [CG]2 [CG]2 | [B,G]3 [B,G]- [B,G]2 [B,G]2 | [CG]3 [CG]- [CG]2 [CG]2 | %19
 [CG]3 [CG]- [CG]2 [CG]2 | [CG]3 [CG]- [CG]2 [CG]2 | [B,G]3 [B,G]- [B,G]2 [B,G]2 | %22
 [CG]3 [CG]- [CG]2 [CG]2 | [CG]3 [CG]- [CG]2 [CG]2 | z c[Gd]>c [Gd]>e [Gd]2 | %25
 z [GB][GB]>A [GB]>c [GB]2 | [Gc]3 [Gc]- [Gc]4 | [GB]3 [GB]- [GB]4 | [Ac]3 [Ac-] [Ac]4 | %29
 [Gc]3 [Gc]- [Gc]2 F2 | [EGc]3 [EGc]- [EGc]4 | [GB]3 [GB]- [GB]4 | [Ac]3 [Ac]- [Ac]4 | %33
 [Gc]3 [Gc]- [Gc]4 | [Fc]3 [Fc]- [Fc]2 [Fc]2 | [Ec]4 [G-B]2 [Gc]2 | [Fc]3 [F-c] [Fc]2 [Fc]2 | %37
 [FGc]8 | [CG]3 [CG]- [CG]2 [CG]2 | [B,G]3 [B,G]- [B,G]2 [B,G]2 | [CG]3 [CG]- [CG]2 [CG]2 | %41
 [CG]3 [CG]- [CG]2 [CG]2 | [CG]3 [CG]- [CG]2 [CG]2 | [B,G]3 [B,G]- [B,G]2 [B,G]2 | %44
 [CG]3 [CG]- [CG]2 [CG]2 | [CG]3 [CG]- [CG]2 [CG]2 | [CG]3 [CG-] G2 G2 | G3 G- G2 G2 | %48
 G3 G- G2 G2 | [G,CE]2 [G,CE]2 [G,CG]2 [G,CG]2 | [A,CG]3 [A,CG]- [A,CG]2 [A,CG]2 | %51
 [B,CG]3 [B,CG]- [B,CG]2 [B,CG]2 | [CF]2 [CF]2 [CG]2 [CG]2 | [B,CG]3 [B,CG]- [B,CG]2 [B,CG]2 | %54
 [B,CG]8 | [Gc]8 | [GB]8 | [Ac]8 | [Gc]3 [Gc]- [Gc]2 F2 | [CG]3 [CG]- [CG]2 [CG]2 | %60
 [B,G]3 [B,G]- [B,G]2 [B,G]2 | [CG]3 [CG]- [CG]2 [CG]2 | [CG]3 [CG]- [CG]2 [CG]2 | %63
 [CG]3 [CG]- [CG]2 [CG]2 | [B,G]3 [B,G]- [B,G]2 [B,G]2 | [CG]3 [CG]- [CG]2 [CG]2 | %66
 [CG]3 [CG]- [CG]2 [CG]2 | [Gc]8 | [GB]8 | [Ac]8 | !fermata![Gc]8 |] %71
V:3
 C8 | [E,E]8 | [A,E]8 | [F,CF]8 | C8 | [E,E]8 | [A,E]8 | [F,CF]8 | [C,C]8 | [E,E]8 | [A,E]8 | %11
 [F,CF]8 | [D,D]8 | [C,C]4 [G,D]4 | [D,D]8 | [F,C]8 | [C,G,]8 | E,6- E,E, | [A,,A,]6- [A,,A,]E, | %19
 [F,,F,]6- [F,,F,]F, | [C,G,]6- [C,G,]G, | [E,,E,]8 | [A,,E,A,]8 | [F,,F,]8 | C8 | [E,E]8 | %26
 [C,C]8 | [E,E]8 | [A,E]8 | [F,CF]8 | [C,C]8 | [E,E]8 | [A,E]8 | [F,CF]8 | [D,D]8 | [C,C]4 [G,D]4 | %36
 [D,D]8 | [F,C]8 | [C,G,]8 | E,6- E,E, | [A,,A,]6- [A,,A,]E, | [F,,F,]6- [F,,F,]F, | %42
 [C,G,]6- [C,G,]G, | [E,,E,]8 | [A,,E,A,]8 | [F,,F,]8 | G,,,8 | A,,3 A,,- A,,2 A,,2 | %48
 B,,3 B,,- B,,2 B,,2 | C,3 C, E,3 E, | F,,8 | G,,8 | D,3 D, A,3 A, | G,3 G,- G,4 | [G,,G,]8 | C8 | %56
 [E,E]8 | A,8 | F,F,F,F, F,F,F,F, | [C,G,]6- [C,G,]G, | [E,,E,]8 | [A,,E,A,]8 | [F,,F,]8 | %63
 [C,G,]8 | E,6- E,E, | [A,,A,]6- [A,,A,]E, | [F,,F,]8 | C8 | [E,E]8 | [A,E]8 | !fermata!F,8 |] %71
V:4
 x8 | x8 | x8 | x8 | x8 | x8 | x8 | x8 | x8 | x8 | x8 | x8 | x8 | x8 | x8 | x8 | x8 | x8 | x8 | %19
 x8 | x8 | x8 | x8 | x8 | x8 | x8 | x8 | x8 | x8 | x8 | x8 | x8 | x8 | x8 | x8 | x8 | x8 | x8 | %38
 x8 | x8 | x8 | x8 | x8 | x8 | x8 | x8 | B,B,B,B,- B,B,B,B, | CCCC CCCC | DDDD DDDD | x8 | x8 | %51
 x8 | x8 | x8 | x8 | x8 | x8 | x8 | x8 | x8 | x8 | x8 | x8 | x8 | x8 | x8 | x8 | x8 | x8 | x8 | %70
 x8 |] %71
V:5
 x8 | x8 | x8 | x8 | x8 | x8 | x8 | x8 | x8 | x8 | x8 | x8 | x8 | x8 | x8 | x8 | x8 | x8 | x8 | %19
 x8 | x8 | x8 | x8 | x8 | x8 | x8 | x8 | x8 | x8 | x8 | x8 | x8 | x8 | x8 | x8 | x8 | x8 | x8 | %38
 x8 | x8 | x8 | x8 | x8 | x8 | x8 | x8 | x8 | A,,,8 | B,,,8 | C,,4 E,,4 | x8 | x8 | D,,4 A,,4 | %53
 G,,8 | x8 | x8 | x8 | x8 | x8 | x8 | x8 | x8 | x8 | x8 | x8 | x8 | x8 | x8 | x8 | x8 | x8 |] %71
V:6
 z8 | z8 | z8 | z8 | z CD>C DE E2 | z B,B,>A, B,>C B,2 | z CDE DCA,>C | D2 C6 | z CD>C DE E2 | %9
w: ||||No mat- ter where I go|I know I'm not a- lone|I feel my Sav- ior there be-|side me|He leads me through the night|
 z B,B,>A, B,C B,2 | z CDE DCA,>C | D2 C4 DE | F2 F2 FED>C | C2 E2 B,2 C2 | z2 DE FED>C | %15
w: He's al- ways been my guide|He pro- mised He will nev- er|leave me Though my|bur- dens seem too much to|bear. He'll bless me|So, what- ev- er He cpm-|
 C4 EG G/FE/ | E4 EGGA- | AE- E2 EGGF | E>D E2 EE E/DC/- | CC- C2 EGGA | E>D E2 EGGA- | %21
w: mands, I will go * and|do. I will stand for|* truth. * Though the world may|back a- way I will walk * right|* through * I know if i|fol- low Him, fol- low Him in|
 AE- E2 EGGF | E>DE>D EE E/DC/ | C4 DE E/DC/ | C8 | z8 | z CD>C DE E2 | z B,B,>A, B,>C B,2 | %28
w: * faith, * He will ease my|bur- * dens and He'll pro- vide * a|way. He'll pro- vide * a|way.||When I feel o- ver come|and all my strength is gone|
 z CDE DCA,>C | D2 C6 | z CCG GC D2 | z/ G,/B,B,>A, A,>C B,2 | z CDE DCA,>C | D2 C4 DE | %34
w: I think of all the ways He's|blessed me.|My jour- ney may seem long,|but He'll lift me with His love|A per- fect love that's ne- ver|end- ing He will|
 F2 F2 FED>C | C2 E2 B,2 C2 | z2 DE FED>C | C4 EG G/FE/ | E4 EGGA- | AE- E2 EGGF | %40
w: give me, give me all the|strength I'm need- ing|So, what- ev- er He com-|mands, I will go * and|do. I will stand for|* truth. * Though the world may|
 E>D E2 EE E/DC/- | CC- C2 EGGA | E>D E2 EGGA- | AE- E2 EGGF | E>DE>D EE E/DC/ | C4 DE E/DC/ | %46
w: back a- way I will walk * right|* through. * I know if I|fol- low Him, fol- low Him in|* faith * He will ease my|bur- * dens and He'll pro- vide * a|way He'll pro- vide * a|
 D3 C/D/- DC/D/-DC/D/- | DC z3/2 C/ FE/D/-DC/E/- | ED-D>D FFFF- | FEEE- EFGC- | %50
w: way for me * to cross * the de-|* sert, to sail a- cross * the o-|* cean. * If theat's where He sends|* me, I'll fol- * low His plan|
 C z/ C/AB/c/- cFFE/E/- | ED C/D/F- FE D/C/D- | D C2 C/D/ F2 E2 | D8 | z4 EG G/FE/ | E4 FGGA- | %56
w: * I'll do what- ev- * er He com- mands|* me, for I know * that He will lead|* me to the pro- mised|land.|I will go * and|do I will stand for|
 AE- E2 EGGF | E>D E2 EE E/DC/ | C4 EGGA | E>D E2 EGGA- | AE- E2 EGGF | E>DE>D EE E/DC/ | %62
w: * truth * Though the world may|shut Him out, I will make * him|room I know if I|fol- low Him, fol- low Him in|* faith * He will ease my|bur- * dens and he'll pro- vide * a|
 C4 DG E/DC/ | C6- CD/-E/ | D4 DGD>C | C8 | z8 | z CD>C D>E E2 | z CB,>A, B,>C B,2 | z CDE DCA,>C | %70
w: way He'll pro- vide * a|way * * *|* He'll pro- vide a|way||No mat- ter where I go|I know I'm not a- lone|I fell my Sav- ior there be-|
 D2 !fermata!C6 |] %71
w: side me|

